; generated by PrusaSlicer 2.3.1+linux-x64 on 2021-10-20 at 12:52:06 UTC

; 

; external perimeters extrusion width = 0.45mm
; perimeters extrusion width = 0.45mm
; infill extrusion width = 0.45mm
; solid infill extrusion width = 0.45mm
; top infill extrusion width = 0.40mm
; support material extrusion width = 0.35mm
; first layer extrusion width = 0.42mm

M73 P0 R274
M73 Q0 S275
M201 X1000 Y1000 Z200 E5000 ; sets maximum accelerations, mm/sec^2
M203 X200 Y200 Z12 E120 ; sets maximum feedrates, mm/sec
M204 P1250 R1250 T1250 ; sets acceleration (P, T) and retract acceleration (R), mm/sec^2
M205 X8.00 Y8.00 Z0.40 E4.50 ; sets the jerk limits, mm/sec
M205 S0 T0 ; sets the minimum extruding and travel feed rate, mm/sec
M107
;TYPE:Custom
M862.3 P "MK3S" ; printer model check
M862.1 P0.4 ; nozzle diameter check
M115 U3.9.3 ; tell printer latest fw version
G90 ; use absolute coordinates
M83 ; extruder relative mode
M104 S205 ; set extruder temp
M140 S60 ; set bed temp
M190 S60 ; wait for bed temp
M109 S205 ; wait for extruder temp
G28 W ; home all without mesh bed level
G80 ; mesh bed leveling
G1 Y-3.0 F1000.0 ; go outside print area
G92 E0.0
G1 X60.0 E9.0 F1000.0 ; intro line
G1 X100.0 E12.5 F1000.0 ; intro line
G92 E0.0
M221 S95

; Don't change E values below. Excessive value can damage the printer.

M907 E538 ; set extruder motor current
G21 ; set units to millimeters
G90 ; use absolute coordinates
M83 ; use relative distances for extrusion
M900 K0.05 ; Filament gcode LA 1.5
M900 K30 ; Filament gcode LA 1.0
;LAYER_CHANGE
;Z:0.2
;HEIGHT:0.2
;BEFORE_LAYER_CHANGE
G92 E0.0
;0.2


G1 E-0.80000 F2100.000
G1 Z0.400 F10800.000
;AFTER_LAYER_CHANGE
;0.2
G1 X32.387 Y77.462
G1 Z0.200
G1 E0.80000 F2100.000
M204 S1000
;TYPE:Skirt
;WIDTH:0.42
G1 F1200.000
G1 X32.688 Y76.831 E0.02190
G1 X33.061 Y76.400 E0.01787
G1 X33.525 Y76.070 E0.01787
G1 X34.055 Y75.861 E0.01787
G1 X34.620 Y75.783 E0.01787
G1 X100.263 Y75.783 E2.05819
G1 X203.219 Y76.143 E3.22813
G1 X204.091 Y76.318 E0.02790
G1 X204.838 Y76.802 E0.02790
G1 X205.381 Y77.586 E0.02989
G1 X205.572 Y78.516 E0.02977
G1 X205.572 Y174.135 E2.99808
G1 X205.399 Y175.012 E0.02802
G1 X204.914 Y175.762 E0.02802
G1 X204.141 Y176.301 E0.02954
G1 X203.219 Y176.497 E0.02954
G1 X137.592 Y176.497 E2.05771
G1 X34.636 Y176.137 E3.22813
G1 X33.763 Y175.961 E0.02790
G1 X33.016 Y175.478 E0.02790
G1 X32.475 Y174.698 E0.02977
G1 X32.282 Y173.768 E0.02977
G1 X32.282 Y78.148 E2.99808
G1 X32.378 Y77.521 E0.01990
; printing object boitier-Snapbox PristineLid.stl id:1 copy 0
;WIPE_START
G1 F8640.000
G1 X32.688 Y76.831 E-0.17455
G1 X33.061 Y76.400 E-0.13161
G1 X33.525 Y76.070 E-0.13161
G1 X34.055 Y75.861 E-0.13161
G1 X34.620 Y75.783 E-0.13161
G1 X34.876 Y75.783 E-0.05901
;WIPE_END
G1 E-0.04000 F2100.000
G1 Z0.600 F10800.000
G1 X64.051 Y138.844
G1 Z0.200
G1 E0.80000 F2100.000
;TYPE:Perimeter
G1 F1200.000
G1 X64.820 Y138.542 E0.02591
G1 X65.615 Y138.318 E0.02591
G1 X66.429 Y138.175 E0.02591
G1 X67.253 Y138.113 E0.02591
G1 X68.079 Y138.133 E0.02591
G1 X68.898 Y138.236 E0.02591
G1 X69.704 Y138.420 E0.02591
G1 X70.487 Y138.683 E0.02591
G1 X71.240 Y139.023 E0.02591
G1 X71.956 Y139.436 E0.02591
G1 X72.627 Y139.918 E0.02591
G1 X73.246 Y140.465 E0.02591
G1 X73.808 Y141.071 E0.02591
G1 X74.307 Y141.729 E0.02591
G1 X74.738 Y142.434 E0.02591
G1 X75.096 Y143.179 E0.02591
G1 X75.379 Y143.955 E0.02591
G1 X75.583 Y144.756 E0.02591
G1 X75.706 Y145.573 E0.02591
G1 X75.747 Y146.398 E0.02591
G1 X75.706 Y147.223 E0.02591
G1 X75.583 Y148.040 E0.02591
G1 X75.379 Y148.841 E0.02591
G1 X75.096 Y149.617 E0.02591
M73 Q0 S274
G1 X74.738 Y150.362 E0.02591
G1 X74.307 Y151.067 E0.02591
G1 X73.808 Y151.726 E0.02591
G1 X73.246 Y152.331 E0.02591
G1 X72.627 Y152.878 E0.02591
G1 X71.956 Y153.360 E0.02591
G1 X71.240 Y153.773 E0.02591
G1 X70.487 Y154.113 E0.02591
G1 X69.711 Y154.374 E0.02568
G1 X69.296 Y154.480 E0.01342
G1 X68.490 Y154.622 E0.02568
G1 X67.666 Y154.683 E0.02591
G1 X66.840 Y154.663 E0.02591
G1 X66.020 Y154.560 E0.02591
G1 X65.215 Y154.376 E0.02591
G1 X64.431 Y154.113 E0.02591
G1 X63.678 Y153.773 E0.02591
G1 X62.963 Y153.360 E0.02591
G1 X62.292 Y152.878 E0.02591
G1 X61.672 Y152.331 E0.02591
G1 X61.110 Y151.726 E0.02591
G1 X60.611 Y151.067 E0.02591
G1 X60.181 Y150.362 E0.02591
G1 X59.822 Y149.617 E0.02591
G1 X59.540 Y148.841 E0.02591
G1 X59.336 Y148.040 E0.02591
G1 X59.214 Y147.230 E0.02570
G1 X59.181 Y146.785 E0.01400
G1 X59.182 Y145.985 E0.02508
G1 X59.264 Y145.163 E0.02590
G1 X59.428 Y144.353 E0.02591
G1 X59.671 Y143.564 E0.02591
G1 X59.992 Y142.802 E0.02591
G1 X60.387 Y142.077 E0.02591
G1 X60.853 Y141.394 E0.02591
G1 X61.384 Y140.761 E0.02591
G1 X61.975 Y140.184 E0.02591
G1 X62.621 Y139.669 E0.02591
G1 X63.315 Y139.221 E0.02591
G1 X63.997 Y138.871 E0.02402
G1 X64.169 Y139.207 F10800.000
;TYPE:External perimeter
G1 F1200.000
G1 X64.940 Y138.900 E0.02601
G1 X65.699 Y138.686 E0.02473
G1 X66.476 Y138.549 E0.02473
G1 X67.262 Y138.490 E0.02473
G1 X68.050 Y138.510 E0.02473
G1 X68.833 Y138.608 E0.02473
G1 X69.602 Y138.783 E0.02473
G1 X70.349 Y139.035 E0.02473
G1 X71.068 Y139.359 E0.02473
G1 X71.751 Y139.753 E0.02473
G1 X72.391 Y140.214 E0.02473
G1 X72.983 Y140.735 E0.02473
G1 X73.519 Y141.314 E0.02473
G1 X73.995 Y141.942 E0.02473
G1 X74.406 Y142.615 E0.02473
G1 X74.748 Y143.326 E0.02473
G1 X75.018 Y144.067 E0.02473
G1 X75.213 Y144.831 E0.02473
G1 X75.330 Y145.611 E0.02473
G1 X75.370 Y146.398 E0.02473
G1 X75.330 Y147.186 E0.02473
G1 X75.213 Y147.966 E0.02473
G1 X75.018 Y148.730 E0.02473
G1 X74.748 Y149.471 E0.02473
G1 X74.406 Y150.181 E0.02473
G1 X73.995 Y150.854 E0.02473
G1 X73.519 Y151.483 E0.02473
G1 X72.983 Y152.061 E0.02473
G1 X72.391 Y152.583 E0.02473
G1 X71.751 Y153.043 E0.02473
G1 X71.068 Y153.437 E0.02473
G1 X70.349 Y153.762 E0.02473
G1 X69.604 Y154.012 E0.02464
G1 X69.217 Y154.111 E0.01253
G1 X68.443 Y154.247 E0.02464
G1 X67.656 Y154.306 E0.02473
G1 X66.868 Y154.286 E0.02473
G1 X66.086 Y154.188 E0.02473
G1 X65.317 Y154.013 E0.02473
G1 X64.569 Y153.762 E0.02473
G1 X63.850 Y153.437 E0.02473
G1 X63.168 Y153.043 E0.02473
G1 X62.527 Y152.583 E0.02473
G1 X61.936 Y152.061 E0.02473
G1 X61.400 Y151.483 E0.02473
G1 X60.923 Y150.854 E0.02473
G1 X60.512 Y150.181 E0.02473
G1 X60.170 Y149.471 E0.02473
G1 X59.900 Y148.730 E0.02473
G1 X59.706 Y147.966 E0.02473
G1 X59.589 Y147.188 E0.02465
G1 X59.558 Y146.771 E0.01311
G1 X59.559 Y146.004 E0.02406
G1 X59.637 Y145.219 E0.02472
G1 X59.794 Y144.446 E0.02473
G1 X60.026 Y143.693 E0.02473
G1 X60.332 Y142.966 E0.02473
G1 X60.709 Y142.273 E0.02473
G1 X61.154 Y141.622 E0.02473
G1 X61.661 Y141.018 E0.02473
G1 X62.225 Y140.467 E0.02473
G1 X62.842 Y139.975 E0.02473
G1 X63.504 Y139.548 E0.02473
G1 X64.116 Y139.234 E0.02155
G1 X64.208 Y138.808 F10800.000
;WIPE_START
G1 F8640.000
G1 X64.940 Y138.900 E-0.20535
G1 X65.699 Y138.686 E-0.18209
G1 X66.476 Y138.549 E-0.18209
G1 X67.262 Y138.490 E-0.18209
G1 X67.298 Y138.491 E-0.00839
;WIPE_END
G1 E-0.04000 F2100.000
G1 Z0.600 F10800.000
G1 X65.874 Y121.662
G1 Z0.200
G1 E0.80000 F2100.000
;TYPE:Perimeter
G1 F1200.000
G1 X65.496 Y121.625 E0.01191
G1 X64.718 Y121.507 E0.02468
G1 X63.946 Y121.351 E0.02468
G1 X63.183 Y121.157 E0.02468
G1 X62.431 Y120.925 E0.02468
G1 X61.691 Y120.656 E0.02468
G1 X60.966 Y120.350 E0.02468
G1 X60.257 Y120.008 E0.02468
G1 X59.566 Y119.632 E0.02468
G1 X58.894 Y119.221 E0.02468
G1 X58.243 Y118.778 E0.02468
G1 X57.616 Y118.303 E0.02468
G1 X57.013 Y117.797 E0.02468
G1 X56.436 Y117.261 E0.02468
G1 X55.886 Y116.698 E0.02468
G1 X55.365 Y116.108 E0.02468
G1 X54.875 Y115.492 E0.02468
G1 X54.415 Y114.853 E0.02468
G1 X53.988 Y114.192 E0.02468
G1 X53.594 Y113.510 E0.02468
G1 X53.235 Y112.810 E0.02468
G1 X52.912 Y112.092 E0.02468
G1 X52.624 Y111.359 E0.02468
G1 X52.373 Y110.613 E0.02468
G1 X52.160 Y109.855 E0.02468
G1 X51.985 Y109.088 E0.02468
G1 X51.848 Y108.313 E0.02468
G1 X51.750 Y107.531 E0.02470
G1 X51.691 Y106.714 E0.02567
G1 X51.672 Y105.960 E0.02367
G1 X51.692 Y105.173 E0.02468
G1 X51.750 Y104.388 E0.02468
G1 X51.848 Y103.607 E0.02468
G1 X51.985 Y102.832 E0.02468
G1 X52.160 Y102.064 E0.02468
G1 X52.373 Y101.306 E0.02468
G1 X52.624 Y100.560 E0.02468
G1 X52.912 Y99.827 E0.02468
G1 X53.235 Y99.110 E0.02468
G1 X53.594 Y98.409 E0.02468
G1 X53.988 Y97.728 E0.02468
G1 X54.415 Y97.066 E0.02468
G1 X54.875 Y96.427 E0.02468
G1 X55.365 Y95.812 E0.02468
G1 X55.886 Y95.222 E0.02468
G1 X56.436 Y94.658 E0.02468
G1 X57.013 Y94.123 E0.02468
G1 X57.616 Y93.617 E0.02468
G1 X58.243 Y93.141 E0.02468
G1 X58.894 Y92.698 E0.02468
G1 X59.566 Y92.287 E0.02468
G1 X60.257 Y91.911 E0.02468
G1 X60.966 Y91.569 E0.02468
G1 X61.691 Y91.264 E0.02468
G1 X62.431 Y90.994 E0.02468
G1 X63.183 Y90.762 E0.02468
G1 X63.946 Y90.568 E0.02468
G1 X64.718 Y90.412 E0.02468
G1 X65.496 Y90.295 E0.02468
G1 X66.279 Y90.217 E0.02468
G1 X67.066 Y90.177 E0.02468
G1 X67.853 Y90.177 E0.02468
G1 X68.639 Y90.217 E0.02468
G1 X69.422 Y90.295 E0.02468
G1 X70.201 Y90.412 E0.02468
G1 X70.972 Y90.568 E0.02468
G1 X71.735 Y90.762 E0.02468
G1 X72.487 Y90.994 E0.02468
G1 X73.227 Y91.264 E0.02468
G1 X73.952 Y91.569 E0.02468
G1 X74.662 Y91.911 E0.02468
G1 X75.353 Y92.287 E0.02468
G1 X76.025 Y92.698 E0.02468
G1 X76.675 Y93.141 E0.02468
G1 X77.302 Y93.617 E0.02468
G1 X77.905 Y94.123 E0.02468
G1 X78.483 Y94.658 E0.02468
G1 X79.032 Y95.222 E0.02468
G1 X79.553 Y95.812 E0.02468
G1 X80.044 Y96.427 E0.02468
G1 X80.503 Y97.066 E0.02468
G1 X80.930 Y97.728 E0.02468
G1 X81.324 Y98.409 E0.02468
G1 X81.683 Y99.110 E0.02468
G1 X82.007 Y99.827 E0.02468
G1 X82.294 Y100.560 E0.02468
G1 X82.545 Y101.306 E0.02468
G1 X82.758 Y102.064 E0.02468
G1 X82.934 Y102.832 E0.02468
G1 X83.070 Y103.607 E0.02468
G1 X83.168 Y104.388 E0.02468
G1 X83.227 Y105.173 E0.02468
G1 X83.247 Y105.960 E0.02468
G1 X83.227 Y106.747 E0.02468
G1 X83.168 Y107.532 E0.02468
G1 X83.070 Y108.313 E0.02468
G1 X82.934 Y109.088 E0.02468
G1 X82.758 Y109.855 E0.02468
G1 X82.545 Y110.613 E0.02468
G1 X82.294 Y111.359 E0.02468
G1 X82.007 Y112.092 E0.02468
G1 X81.683 Y112.810 E0.02468
G1 X81.324 Y113.510 E0.02468
G1 X80.930 Y114.192 E0.02468
G1 X80.503 Y114.853 E0.02468
G1 X80.044 Y115.492 E0.02468
G1 X79.553 Y116.108 E0.02468
G1 X79.032 Y116.698 E0.02468
G1 X78.483 Y117.261 E0.02468
G1 X77.905 Y117.797 E0.02468
G1 X77.302 Y118.303 E0.02468
G1 X76.675 Y118.778 E0.02468
G1 X76.025 Y119.221 E0.02468
G1 X75.353 Y119.632 E0.02468
G1 X74.662 Y120.008 E0.02468
G1 X73.952 Y120.350 E0.02468
G1 X73.227 Y120.656 E0.02468
G1 X72.487 Y120.925 E0.02468
G1 X71.735 Y121.157 E0.02468
G1 X70.972 Y121.351 E0.02468
G1 X70.201 Y121.507 E0.02468
G1 X69.422 Y121.625 E0.02468
G1 X68.639 Y121.703 E0.02468
G1 X67.853 Y121.742 E0.02468
G1 X67.066 Y121.742 E0.02468
G1 X65.934 Y121.668 E0.03556
G1 X65.971 Y121.293 F10800.000
;TYPE:External perimeter
G1 F1200.000
G1 X65.543 Y121.250 E0.01349
G1 X64.783 Y121.136 E0.02409
G1 X64.030 Y120.983 E0.02409
G1 X63.286 Y120.794 E0.02409
G1 X62.551 Y120.567 E0.02409
G1 X61.829 Y120.305 E0.02409
G1 X61.121 Y120.006 E0.02409
G1 X60.429 Y119.673 E0.02409
G1 X59.754 Y119.305 E0.02409
G1 X59.099 Y118.905 E0.02409
G1 X58.464 Y118.472 E0.02409
G1 X57.851 Y118.008 E0.02409
G1 X57.263 Y117.514 E0.02409
G1 X56.699 Y116.991 E0.02409
G1 X56.163 Y116.441 E0.02409
G1 X55.654 Y115.865 E0.02409
G1 X55.175 Y115.264 E0.02409
G1 X54.727 Y114.641 E0.02409
G1 X54.310 Y113.995 E0.02409
G1 X53.926 Y113.330 E0.02409
G1 X53.575 Y112.646 E0.02409
G1 X53.259 Y111.946 E0.02409
G1 X52.978 Y111.230 E0.02409
G1 X52.734 Y110.502 E0.02409
G1 X52.526 Y109.762 E0.02409
G1 X52.355 Y109.013 E0.02409
G1 X52.221 Y108.256 E0.02409
G1 X52.126 Y107.494 E0.02410
G1 X52.067 Y106.696 E0.02508
G1 X52.049 Y105.960 E0.02309
G1 X52.068 Y105.192 E0.02409
G1 X52.126 Y104.425 E0.02409
G1 X52.221 Y103.663 E0.02409
G1 X52.355 Y102.906 E0.02409
G1 X52.526 Y102.157 E0.02409
G1 X52.734 Y101.417 E0.02409
G1 X52.978 Y100.689 E0.02409
G1 X53.259 Y99.974 E0.02409
G1 X53.575 Y99.273 E0.02409
G1 X53.926 Y98.590 E0.02409
G1 X54.310 Y97.924 E0.02409
G1 X54.727 Y97.279 E0.02409
G1 X55.175 Y96.655 E0.02409
G1 X55.654 Y96.054 E0.02409
G1 X56.163 Y95.478 E0.02409
G1 X56.699 Y94.928 E0.02409
G1 X57.263 Y94.405 E0.02409
G1 X57.851 Y93.912 E0.02409
G1 X58.464 Y93.448 E0.02409
G1 X59.099 Y93.015 E0.02409
G1 X59.754 Y92.614 E0.02409
G1 X60.429 Y92.247 E0.02409
G1 X61.121 Y91.913 E0.02409
G1 X61.829 Y91.615 E0.02409
G1 X62.551 Y91.352 E0.02409
G1 X63.286 Y91.126 E0.02409
G1 X64.030 Y90.936 E0.02409
G1 X64.783 Y90.784 E0.02409
G1 X65.543 Y90.669 E0.02409
G1 X66.308 Y90.593 E0.02409
G1 X67.075 Y90.554 E0.02409
G1 X67.843 Y90.554 E0.02409
G1 X68.611 Y90.593 E0.02409
G1 X69.375 Y90.669 E0.02409
G1 X70.135 Y90.784 E0.02409
G1 X70.888 Y90.936 E0.02409
G1 X71.633 Y91.126 E0.02409
G1 X72.367 Y91.352 E0.02409
G1 X73.089 Y91.615 E0.02409
G1 X73.797 Y91.913 E0.02409
G1 X74.489 Y92.247 E0.02409
G1 X75.164 Y92.614 E0.02409
G1 X75.820 Y93.015 E0.02409
G1 X76.455 Y93.448 E0.02409
G1 X77.067 Y93.912 E0.02409
G1 X77.656 Y94.405 E0.02409
G1 X78.219 Y94.928 E0.02409
G1 X78.756 Y95.478 E0.02409
G1 X79.264 Y96.054 E0.02409
G1 X79.743 Y96.655 E0.02409
G1 X80.192 Y97.279 E0.02409
G1 X80.609 Y97.924 E0.02409
G1 X80.993 Y98.590 E0.02409
G1 X81.343 Y99.273 E0.02409
G1 X81.659 Y99.974 E0.02409
G1 X81.940 Y100.689 E0.02409
G1 X82.185 Y101.417 E0.02409
G1 X82.393 Y102.157 E0.02409
G1 X82.564 Y102.906 E0.02409
G1 X82.697 Y103.663 E0.02409
G1 X82.793 Y104.425 E0.02409
G1 X82.850 Y105.192 E0.02409
G1 X82.869 Y105.960 E0.02409
G1 X82.850 Y106.728 E0.02409
G1 X82.793 Y107.494 E0.02409
G1 X82.697 Y108.256 E0.02409
G1 X82.564 Y109.013 E0.02409
G1 X82.393 Y109.762 E0.02409
G1 X82.185 Y110.502 E0.02409
G1 X81.940 Y111.230 E0.02409
G1 X81.659 Y111.946 E0.02409
G1 X81.343 Y112.646 E0.02409
G1 X80.993 Y113.330 E0.02409
G1 X80.609 Y113.995 E0.02409
G1 X80.192 Y114.641 E0.02409
G1 X79.743 Y115.264 E0.02409
G1 X79.264 Y115.865 E0.02409
G1 X78.756 Y116.441 E0.02409
G1 X78.219 Y116.991 E0.02409
G1 X77.656 Y117.514 E0.02409
G1 X77.067 Y118.008 E0.02409
G1 X76.455 Y118.472 E0.02409
G1 X75.820 Y118.905 E0.02409
G1 X75.164 Y119.305 E0.02409
G1 X74.489 Y119.673 E0.02409
G1 X73.797 Y120.006 E0.02409
G1 X73.089 Y120.305 E0.02409
G1 X72.367 Y120.567 E0.02409
G1 X71.633 Y120.794 E0.02409
G1 X70.888 Y120.983 E0.02409
G1 X70.135 Y121.136 E0.02409
G1 X69.375 Y121.250 E0.02409
G1 X68.611 Y121.327 E0.02409
G1 X67.843 Y121.365 E0.02409
G1 X67.075 Y121.365 E0.02409
G1 X66.031 Y121.299 E0.03280
G1 X65.744 Y121.623 F10800.000
;WIPE_START
G1 F8640.000
G1 X65.543 Y121.250 E-0.11323
G1 X64.783 Y121.136 E-0.17742
G1 X64.030 Y120.983 E-0.17742
G1 X63.286 Y120.794 E-0.17742
G1 X62.812 Y120.648 E-0.11452
;WIPE_END
G1 E-0.04000 F2100.000
G1 Z0.600 F10800.000
G1 X35.446 Y78.947
G1 Z0.200
G1 E0.80000 F2100.000
;TYPE:Perimeter
G1 F1200.000
G1 X99.472 Y78.947 E2.00749
G1 X99.472 Y172.973 E2.94811
M73 P0 R273
G1 X35.446 Y172.973 E2.00749
G1 X35.446 Y79.007 E2.94623
G1 X35.069 Y78.570 F10800.000
;TYPE:External perimeter
G1 F1200.000
G1 X99.849 Y78.570 E2.03113
G1 X99.849 Y173.350 E2.97176
G1 X35.069 Y173.350 E2.03113
G1 X35.069 Y78.630 E2.96988
G1 X35.448 Y78.697 F10800.000
;WIPE_START
G1 F8640.000
G1 X38.361 Y78.627 E-0.76000
;WIPE_END
G1 E-0.04000 F2100.000
G1 Z0.600 F10800.000
G1 X99.359 Y79.824
G1 Z0.200
G1 E0.80000 F2100.000
;TYPE:Solid infill
;WIDTH:0.420861
G1 F1200.000
G1 X98.765 Y79.230 E0.02642
G1 X98.230 Y79.230 E0.01680
G1 X99.189 Y80.189 E0.04263
G1 X99.189 Y80.723 E0.01680
G1 X97.696 Y79.230 E0.06638
G1 X97.161 Y79.230 E0.01680
G1 X99.189 Y81.258 E0.09014
G1 X99.189 Y81.792 E0.01680
G1 X96.627 Y79.230 E0.11389
G1 X96.092 Y79.230 E0.01680
G1 X99.189 Y82.327 E0.13765
G1 X99.189 Y82.861 E0.01680
G1 X95.558 Y79.230 E0.16140
G1 X95.023 Y79.230 E0.01680
G1 X99.189 Y83.396 E0.18516
G1 X99.189 Y83.930 E0.01680
G1 X94.489 Y79.230 E0.20891
G1 X93.954 Y79.230 E0.01680
G1 X99.189 Y84.465 E0.23266
G1 X99.189 Y84.999 E0.01680
G1 X93.420 Y79.230 E0.25642
G1 X92.885 Y79.230 E0.01680
G1 X99.189 Y85.534 E0.28017
G1 X99.189 Y86.068 E0.01680
G1 X92.351 Y79.230 E0.30393
G1 X91.816 Y79.230 E0.01680
G1 X99.189 Y86.603 E0.32768
G1 X99.189 Y87.137 E0.01680
G1 X91.282 Y79.230 E0.35144
G1 X90.747 Y79.230 E0.01680
