; generated by PrusaSlicer 2.4.0+linux-x64-GTK3 on 2022-01-16 at 08:47:06 UTC

; 

; external perimeters extrusion width = 0.45mm
; perimeters extrusion width = 0.45mm
; infill extrusion width = 0.45mm
; solid infill extrusion width = 0.45mm
; top infill extrusion width = 0.40mm
; support material extrusion width = 0.35mm
; first layer extrusion width = 0.42mm

M73 P0 R122
M73 Q0 S126
M201 X1000 Y1000 Z200 E5000 ; sets maximum accelerations, mm/sec^2
M203 X200 Y200 Z12 E120 ; sets maximum feedrates, mm/sec
M204 P1250 R1250 T1250 ; sets acceleration (P, T) and retract acceleration (R), mm/sec^2
M205 X8.00 Y8.00 Z0.40 E4.50 ; sets the jerk limits, mm/sec
M205 S0 T0 ; sets the minimum extruding and travel feed rate, mm/sec
M107
;TYPE:Custom
M862.3 P "MK3S" ; printer model check
M862.1 P0.4 ; nozzle diameter check
M115 U3.10.1 ; tell printer latest fw version
G90 ; use absolute coordinates
M83 ; extruder relative mode
M104 S235 ; set extruder temp
M140 S50 ; set bed temp
M190 S50 ; wait for bed temp
M109 S235 ; wait for extruder temp
G28 W ; home all without mesh bed level
G80 ; mesh bed leveling
G1 Z0.2 F720
G1 Y-3 F1000 ; go outside print area
G92 E0
G1 X60 E9 F1000 ; intro line
G1 X100 E12.5 F1000 ; intro line
G92 E0
M221 S95

; Don't change E values below. Excessive value can damage the printer.

M907 E538 ; set extruder motor current
G21 ; set units to millimeters
G90 ; use absolute coordinates
M83 ; use relative distances for extrusion
M900 K0
M107
;LAYER_CHANGE
;Z:0.2
;HEIGHT:0.2
;BEFORE_LAYER_CHANGE
G92 E0.0
;0.2


G1 E-2 F2700
G1 Z.2 F720
;AFTER_LAYER_CHANGE
;0.2
G1 X23.109 Y94.19 F10800
G1 E2 F1200
M204 S800
;TYPE:Skirt/Brim
;WIDTH:0.42
G1 X27.603 Y94.193 E.16065
G1 X230.051 Y104.313 E7.2453
G1 X231.337 Y104.769 E.04877
G1 X232.16 Y105.857 E.04877
G1 X232.31 Y106.687 E.03013
G1 X232.31 Y117.22 E.3765
G1 X231.918 Y118.527 E.04877
G1 X230.872 Y119.403 E.04877
G1 X229.932 Y119.597 E.0343
G1 X80.331 Y119.597 E5.34735
G1 X38.791 Y115.8 E1.49098
G1 X37.278 Y115.063 E.06014
G1 X21.379 Y98.198 E.82847
G1 X20.768 Y96.978 E.04877
G1 X20.928 Y95.623 E.04877
G1 X21.806 Y94.579 E.04877
G1 X23.052 Y94.207 E.04646
M204 S1000
; printing object sangles-Body.stl id:0 copy 0
G1 E-2 F2700
G1 X229.932 Y117.22 F10800
G1 E2 F1200
M204 S800
;TYPE:Support material
G1 X80.331 Y117.22 E5.34735
G1 X80.331 Y113.913 E.11821
M73 Q0 S125
G1 X83.712 Y113.913 E.12088
G1 X83.994 Y113.632 E.01421
G1 X83.994 Y110.934 E.09642
G1 X83.712 Y110.653 E.01421
G1 X80.331 Y110.653 E.12088
G1 X80.331 Y106.687 E.14176
G1 X229.932 Y106.687 E5.34735
G1 X229.932 Y117.163 E.37448
M204 S1000
G1 X229.325 Y117.05 F10800
M204 S800
G1 F1200
G1 X229.325 Y107.026 E.3583
G1 X228.906 Y107.026 E.01498
G1 X228.906 Y116.881 E.35224
G1 X228.487 Y116.881 E.01498
G1 X228.487 Y107.026 E.35224
G1 X228.068 Y107.026 E.01498
G1 X228.068 Y116.881 E.35224
G1 X227.649 Y116.881 E.01498
G1 X227.649 Y107.026 E.35224
G1 X227.23 Y107.026 E.01498
G1 X227.23 Y116.881 E.35224
G1 X226.811 Y116.881 E.01498
G1 X226.811 Y107.026 E.35224
G1 X226.392 Y107.026 E.01498
G1 X226.392 Y116.881 E.35224
G1 X225.973 Y116.881 E.01498
G1 X225.973 Y107.026 E.35224
G1 X225.554 Y107.026 E.01498
G1 X225.554 Y116.881 E.35224
G1 X225.136 Y116.881 E.01498
G1 X225.136 Y107.026 E.35224
G1 X224.717 Y107.026 E.01498
G1 X224.717 Y116.881 E.35224
G1 X224.298 Y116.881 E.01498
G1 X224.298 Y107.026 E.35224
G1 X223.879 Y107.026 E.01498
G1 X223.879 Y116.881 E.35224
G1 X223.46 Y116.881 E.01498
M73 P0 R121
G1 X223.46 Y107.026 E.35224
G1 X223.041 Y107.026 E.01498
G1 X223.041 Y116.881 E.35224
G1 X222.622 Y116.881 E.01498
G1 X222.622 Y107.026 E.35224
G1 X222.203 Y107.026 E.01498
G1 X222.203 Y116.881 E.35224
G1 X221.784 Y116.881 E.01498
G1 X221.784 Y107.026 E.35224
G1 X221.365 Y107.026 E.01498
G1 X221.365 Y116.881 E.35224
G1 X220.946 Y116.881 E.01498
G1 X220.946 Y107.026 E.35224
G1 X220.527 Y107.026 E.01498
G1 X220.527 Y116.881 E.35224
G1 X220.108 Y116.881 E.01498
G1 X220.108 Y107.026 E.35224
G1 X219.689 Y107.026 E.01498
G1 X219.689 Y116.881 E.35224
G1 X219.27 Y116.881 E.01498
G1 X219.27 Y107.026 E.35224
G1 X218.851 Y107.026 E.01498
G1 X218.851 Y116.881 E.35224
G1 X218.432 Y116.881 E.01498
G1 X218.432 Y107.026 E.35224
G1 X218.013 Y107.026 E.01498
G1 X218.013 Y116.881 E.35224
G1 X217.594 Y116.881 E.01498
G1 X217.594 Y107.026 E.35224
G1 X217.175 Y107.026 E.01498
G1 X217.175 Y116.881 E.35224
G1 X216.756 Y116.881 E.01498
G1 X216.756 Y107.026 E.35224
G1 X216.337 Y107.026 E.01498
G1 X216.337 Y116.881 E.35224
G1 X215.918 Y116.881 E.01498
G1 X215.918 Y107.026 E.35224
G1 X215.499 Y107.026 E.01498
G1 X215.499 Y116.881 E.35224
G1 X215.08 Y116.881 E.01498
G1 X215.08 Y107.026 E.35224
G1 X214.661 Y107.026 E.01498
G1 X214.661 Y116.881 E.35224
G1 X214.242 Y116.881 E.01498
G1 X214.242 Y107.026 E.35224
G1 X213.823 Y107.026 E.01498
G1 X213.823 Y116.881 E.35224
G1 X213.404 Y116.881 E.01498
G1 X213.404 Y107.026 E.35224
G1 X212.985 Y107.026 E.01498
G1 X212.985 Y116.881 E.35224
G1 X212.566 Y116.881 E.01498
G1 X212.566 Y107.026 E.35224
G1 X212.147 Y107.026 E.01498
G1 X212.147 Y116.881 E.35224
G1 X211.728 Y116.881 E.01498
G1 X211.728 Y107.026 E.35224
G1 X211.309 Y107.026 E.01498
G1 X211.309 Y116.881 E.35224
G1 X210.89 Y116.881 E.01498
G1 X210.89 Y107.026 E.35224
G1 X210.471 Y107.026 E.01498
G1 X210.471 Y116.881 E.35224
G1 X210.052 Y116.881 E.01498
G1 X210.052 Y107.026 E.35224
G1 X209.633 Y107.026 E.01498
G1 X209.633 Y116.881 E.35224
G1 X209.214 Y116.881 E.01498
G1 X209.214 Y107.026 E.35224
G1 X208.795 Y107.026 E.01498
G1 X208.795 Y116.881 E.35224
G1 X208.376 Y116.881 E.01498
M73 P1 R121
G1 X208.376 Y107.026 E.35224
G1 X207.957 Y107.026 E.01498
G1 X207.957 Y116.881 E.35224
G1 X207.538 Y116.881 E.01498
M73 Q1 S125
G1 X207.538 Y107.026 E.35224
G1 X207.119 Y107.026 E.01498
G1 X207.119 Y116.881 E.35224
G1 X206.701 Y116.881 E.01498
G1 X206.701 Y107.026 E.35224
G1 X206.282 Y107.026 E.01498
G1 X206.282 Y116.881 E.35224
G1 X205.863 Y116.881 E.01498
G1 X205.863 Y107.026 E.35224
G1 X205.444 Y107.026 E.01498
G1 X205.444 Y116.881 E.35224
G1 X205.025 Y116.881 E.01498
G1 X205.025 Y107.026 E.35224
G1 X204.606 Y107.026 E.01498
G1 X204.606 Y116.881 E.35224
G1 X204.187 Y116.881 E.01498
G1 X204.187 Y107.026 E.35224
G1 X203.768 Y107.026 E.01498
G1 X203.768 Y116.881 E.35224
G1 X203.349 Y116.881 E.01498
G1 X203.349 Y107.026 E.35224
G1 X202.93 Y107.026 E.01498
G1 X202.93 Y116.881 E.35224
G1 X202.511 Y116.881 E.01498
G1 X202.511 Y107.026 E.35224
G1 X202.092 Y107.026 E.01498
G1 X202.092 Y116.881 E.35224
G1 X201.673 Y116.881 E.01498
G1 X201.673 Y107.026 E.35224
G1 X201.254 Y107.026 E.01498
G1 X201.254 Y116.881 E.35224
G1 X200.835 Y116.881 E.01498
G1 X200.835 Y107.026 E.35224
G1 X200.416 Y107.026 E.01498
G1 X200.416 Y116.881 E.35224
G1 X199.997 Y116.881 E.01498
G1 X199.997 Y107.026 E.35224
G1 X199.578 Y107.026 E.01498
G1 X199.578 Y116.881 E.35224
G1 X199.159 Y116.881 E.01498
G1 X199.159 Y107.026 E.35224
G1 X198.74 Y107.026 E.01498
G1 X198.74 Y116.881 E.35224
G1 X198.321 Y116.881 E.01498
G1 X198.321 Y107.026 E.35224
G1 X197.902 Y107.026 E.01498
G1 X197.902 Y116.881 E.35224
G1 X197.483 Y116.881 E.01498
G1 X197.483 Y107.026 E.35224
G1 X197.064 Y107.026 E.01498
G1 X197.064 Y116.881 E.35224
G1 X196.645 Y116.881 E.01498
G1 X196.645 Y107.026 E.35224
G1 X196.226 Y107.026 E.01498
G1 X196.226 Y116.881 E.35224
G1 X195.807 Y116.881 E.01498
G1 X195.807 Y107.026 E.35224
G1 X195.388 Y107.026 E.01498
G1 X195.388 Y116.881 E.35224
G1 X194.969 Y116.881 E.01498
G1 X194.969 Y107.026 E.35224
G1 X194.55 Y107.026 E.01498
M73 Q1 S124
G1 X194.55 Y116.881 E.35224
G1 X194.131 Y116.881 E.01498
G1 X194.131 Y107.026 E.35224
G1 X193.712 Y107.026 E.01498
G1 X193.712 Y116.881 E.35224
G1 X193.293 Y116.881 E.01498
G1 X193.293 Y107.026 E.35224
G1 X192.874 Y107.026 E.01498
G1 X192.874 Y116.881 E.35224
G1 X192.455 Y116.881 E.01498
G1 X192.455 Y107.026 E.35224
G1 X192.036 Y107.026 E.01498
G1 X192.036 Y116.881 E.35224
G1 X191.617 Y116.881 E.01498
G1 X191.617 Y107.026 E.35224
G1 X191.198 Y107.026 E.01498
G1 X191.198 Y116.881 E.35224
G1 X190.779 Y116.881 E.01498
G1 X190.779 Y107.026 E.35224
G1 X190.36 Y107.026 E.01498
G1 X190.36 Y116.881 E.35224
G1 X189.941 Y116.881 E.01498
G1 X189.941 Y107.026 E.35224
G1 X189.522 Y107.026 E.01498
G1 X189.522 Y116.881 E.35224
G1 X189.103 Y116.881 E.01498
G1 X189.103 Y107.026 E.35224
G1 X188.685 Y107.026 E.01498
G1 X188.685 Y116.881 E.35224
G1 X188.266 Y116.881 E.01498
G1 X188.266 Y107.026 E.35224
G1 X187.847 Y107.026 E.01498
G1 X187.847 Y116.881 E.35224
G1 X187.428 Y116.881 E.01498
G1 X187.428 Y107.026 E.35224
G1 X187.009 Y107.026 E.01498
G1 X187.009 Y116.881 E.35224
G1 X186.59 Y116.881 E.01498
G1 X186.59 Y107.026 E.35224
G1 X186.171 Y107.026 E.01498
G1 X186.171 Y116.881 E.35224
G1 X185.752 Y116.881 E.01498
G1 X185.752 Y107.026 E.35224
G1 X185.333 Y107.026 E.01498
G1 X185.333 Y116.881 E.35224
G1 X184.914 Y116.881 E.01498
G1 X184.914 Y107.026 E.35224
G1 X184.495 Y107.026 E.01498
G1 X184.495 Y116.881 E.35224
G1 X184.076 Y116.881 E.01498
G1 X184.076 Y107.026 E.35224
G1 X183.657 Y107.026 E.01498
G1 X183.657 Y116.881 E.35224
G1 X183.238 Y116.881 E.01498
G1 X183.238 Y107.026 E.35224
G1 X182.819 Y107.026 E.01498
G1 X182.819 Y116.881 E.35224
G1 X182.4 Y116.881 E.01498
G1 X182.4 Y107.026 E.35224
G1 X181.981 Y107.026 E.01498
G1 X181.981 Y116.881 E.35224
G1 X181.562 Y116.881 E.01498
G1 X181.562 Y107.026 E.35224
G1 X181.143 Y107.026 E.01498
G1 X181.143 Y116.881 E.35224
G1 X180.724 Y116.881 E.01498
G1 X180.724 Y107.026 E.35224
G1 X180.305 Y107.026 E.01498
G1 X180.305 Y116.881 E.35224
G1 X179.886 Y116.881 E.01498
G1 X179.886 Y107.026 E.35224
G1 X179.467 Y107.026 E.01498
G1 X179.467 Y116.881 E.35224
G1 X179.048 Y116.881 E.01498
G1 X179.048 Y107.026 E.35224
G1 X178.629 Y107.026 E.01498
G1 X178.629 Y116.881 E.35224
G1 X178.21 Y116.881 E.01498
G1 X178.21 Y107.026 E.35224
G1 X177.791 Y107.026 E.01498
G1 X177.791 Y116.881 E.35224
G1 X177.372 Y116.881 E.01498
G1 X177.372 Y107.026 E.35224
G1 X176.953 Y107.026 E.01498
G1 X176.953 Y116.881 E.35224
G1 X176.534 Y116.881 E.01498
G1 X176.534 Y107.026 E.35224
G1 X176.115 Y107.026 E.01498
M73 P1 R120
G1 X176.115 Y116.881 E.35224
G1 X175.696 Y116.881 E.01498
G1 X175.696 Y107.026 E.35224
G1 X175.277 Y107.026 E.01498
G1 X175.277 Y116.881 E.35224
G1 X174.858 Y116.881 E.01498
G1 X174.858 Y107.026 E.35224
G1 X174.439 Y107.026 E.01498
G1 X174.439 Y116.881 E.35224
G1 X174.02 Y116.881 E.01498
G1 X174.02 Y107.026 E.35224
G1 X173.601 Y107.026 E.01498
G1 X173.601 Y116.881 E.35224
G1 X173.182 Y116.881 E.01498
G1 X173.182 Y107.026 E.35224
G1 X172.763 Y107.026 E.01498
G1 X172.763 Y116.881 E.35224
G1 X172.344 Y116.881 E.01498
G1 X172.344 Y107.026 E.35224
G1 X171.925 Y107.026 E.01498
G1 X171.925 Y116.881 E.35224
G1 X171.506 Y116.881 E.01498
G1 X171.506 Y107.026 E.35224
G1 X171.087 Y107.026 E.01498
G1 X171.087 Y116.881 E.35224
G1 X170.668 Y116.881 E.01498
G1 X170.668 Y107.026 E.35224
G1 X170.25 Y107.026 E.01498
G1 X170.25 Y116.881 E.35224
G1 X169.831 Y116.881 E.01498
G1 X169.831 Y107.026 E.35224
G1 X169.412 Y107.026 E.01498
G1 X169.412 Y116.881 E.35224
G1 X168.993 Y116.881 E.01498
G1 X168.993 Y107.026 E.35224
G1 X168.574 Y107.026 E.01498
G1 X168.574 Y116.881 E.35224
G1 X168.155 Y116.881 E.01498
G1 X168.155 Y107.026 E.35224
G1 X167.736 Y107.026 E.01498
G1 X167.736 Y116.881 E.35224
G1 X167.317 Y116.881 E.01498
G1 X167.317 Y107.026 E.35224
G1 X166.898 Y107.026 E.01498
G1 X166.898 Y116.881 E.35224
G1 X166.479 Y116.881 E.01498
G1 X166.479 Y107.026 E.35224
G1 X166.06 Y107.026 E.01498
G1 X166.06 Y116.881 E.35224
G1 X165.641 Y116.881 E.01498
G1 X165.641 Y107.026 E.35224
G1 X165.222 Y107.026 E.01498
G1 X165.222 Y116.881 E.35224
G1 X164.803 Y116.881 E.01498
G1 X164.803 Y107.026 E.35224
G1 X164.384 Y107.026 E.01498
G1 X164.384 Y116.881 E.35224
G1 X163.965 Y116.881 E.01498
G1 X163.965 Y107.026 E.35224
G1 X163.546 Y107.026 E.01498
G1 X163.546 Y116.881 E.35224
G1 X163.127 Y116.881 E.01498
G1 X163.127 Y107.026 E.35224
G1 X162.708 Y107.026 E.01498
G1 X162.708 Y116.881 E.35224
G1 X162.289 Y116.881 E.01498
G1 X162.289 Y107.026 E.35224
G1 X161.87 Y107.026 E.01498
G1 X161.87 Y116.881 E.35224
G1 X161.451 Y116.881 E.01498
G1 X161.451 Y107.026 E.35224
G1 X161.032 Y107.026 E.01498
G1 X161.032 Y116.881 E.35224
G1 X160.613 Y116.881 E.01498
G1 X160.613 Y107.026 E.35224
G1 X160.194 Y107.026 E.01498
G1 X160.194 Y116.881 E.35224
G1 X159.775 Y116.881 E.01498
G1 X159.775 Y107.026 E.35224
G1 X159.356 Y107.026 E.01498
G1 X159.356 Y116.881 E.35224
G1 X158.937 Y116.881 E.01498
G1 X158.937 Y107.026 E.35224
G1 X158.518 Y107.026 E.01498
G1 X158.518 Y116.881 E.35224
G1 X158.099 Y116.881 E.01498
G1 X158.099 Y107.026 E.35224
G1 X157.68 Y107.026 E.01498
G1 X157.68 Y116.881 E.35224
G1 X157.261 Y116.881 E.01498
G1 X157.261 Y107.026 E.35224
G1 X156.842 Y107.026 E.01498
G1 X156.842 Y116.881 E.35224
G1 X156.423 Y116.881 E.01498
G1 X156.423 Y107.026 E.35224
G1 X156.004 Y107.026 E.01498
G1 X156.004 Y116.881 E.35224
G1 X155.585 Y116.881 E.01498
G1 X155.585 Y107.026 E.35224
G1 X155.166 Y107.026 E.01498
G1 X155.166 Y116.881 E.35224
G1 X154.747 Y116.881 E.01498
G1 X154.747 Y107.026 E.35224
G1 X154.328 Y107.026 E.01498
G1 X154.328 Y116.881 E.35224
G1 X153.909 Y116.881 E.01498
G1 X153.909 Y107.026 E.35224
G1 X153.49 Y107.026 E.01498
G1 X153.49 Y116.881 E.35224
G1 X153.071 Y116.881 E.01498
G1 X153.071 Y107.026 E.35224
G1 X152.652 Y107.026 E.01498
G1 X152.652 Y116.881 E.35224
G1 X152.234 Y116.881 E.01498
G1 X152.234 Y107.026 E.35224
G1 X151.815 Y107.026 E.01498
G1 X151.815 Y116.881 E.35224
G1 X151.396 Y116.881 E.01498
G1 X151.396 Y107.026 E.35224
G1 X150.977 Y107.026 E.01498
G1 X150.977 Y116.881 E.35224
G1 X150.558 Y116.881 E.01498
M73 P2 R120
G1 X150.558 Y107.026 E.35224
G1 X150.139 Y107.026 E.01498
G1 X150.139 Y116.881 E.35224
G1 X149.72 Y116.881 E.01498
G1 X149.72 Y107.026 E.35224
G1 X149.301 Y107.026 E.01498
G1 X149.301 Y116.881 E.35224
G1 X148.882 Y116.881 E.01498
G1 X148.882 Y107.026 E.35224
G1 X148.463 Y107.026 E.01498
G1 X148.463 Y116.881 E.35224
G1 X148.044 Y116.881 E.01498
G1 X148.044 Y107.026 E.35224
G1 X147.625 Y107.026 E.01498
M73 Q2 S124
G1 X147.625 Y116.881 E.35224
G1 X147.206 Y116.881 E.01498
M73 Q2 S123
G1 X147.206 Y107.026 E.35224
G1 X146.787 Y107.026 E.01498
G1 X146.787 Y116.881 E.35224
G1 X146.368 Y116.881 E.01498
G1 X146.368 Y107.026 E.35224
G1 X145.949 Y107.026 E.01498
G1 X145.949 Y116.881 E.35224
G1 X145.53 Y116.881 E.01498
G1 X145.53 Y107.026 E.35224
G1 X145.111 Y107.026 E.01498
G1 X145.111 Y116.881 E.35224
G1 X144.692 Y116.881 E.01498
G1 X144.692 Y107.026 E.35224
G1 X144.273 Y107.026 E.01498
G1 X144.273 Y116.881 E.35224
G1 X143.854 Y116.881 E.01498
G1 X143.854 Y107.026 E.35224
G1 X143.435 Y107.026 E.01498
G1 X143.435 Y116.881 E.35224
G1 X143.016 Y116.881 E.01498
G1 X143.016 Y107.026 E.35224
G1 X142.597 Y107.026 E.01498
G1 X142.597 Y116.881 E.35224
G1 X142.178 Y116.881 E.01498
G1 X142.178 Y107.026 E.35224
G1 X141.759 Y107.026 E.01498
G1 X141.759 Y116.881 E.35224
G1 X141.34 Y116.881 E.01498
G1 X141.34 Y107.026 E.35224
G1 X140.921 Y107.026 E.01498
G1 X140.921 Y116.881 E.35224
G1 X140.502 Y116.881 E.01498
G1 X140.502 Y107.026 E.35224
G1 X140.083 Y107.026 E.01498
G1 X140.083 Y116.881 E.35224
G1 X139.664 Y116.881 E.01498
G1 X139.664 Y107.026 E.35224
G1 X139.245 Y107.026 E.01498
G1 X139.245 Y116.881 E.35224
G1 X138.826 Y116.881 E.01498
G1 X138.826 Y107.026 E.35224
G1 X138.407 Y107.026 E.01498
G1 X138.407 Y116.881 E.35224
G1 X137.988 Y116.881 E.01498
G1 X137.988 Y107.026 E.35224
G1 X137.569 Y107.026 E.01498
G1 X137.569 Y116.881 E.35224
G1 X137.15 Y116.881 E.01498
G1 X137.15 Y107.026 E.35224
G1 X136.731 Y107.026 E.01498
G1 X136.731 Y116.881 E.35224
G1 X136.312 Y116.881 E.01498
G1 X136.312 Y107.026 E.35224
G1 X135.893 Y107.026 E.01498
G1 X135.893 Y116.881 E.35224
G1 X135.474 Y116.881 E.01498
G1 X135.474 Y107.026 E.35224
G1 X135.055 Y107.026 E.01498
G1 X135.055 Y116.881 E.35224
G1 X134.636 Y116.881 E.01498
G1 X134.636 Y107.026 E.35224
G1 X134.217 Y107.026 E.01498
G1 X134.217 Y116.881 E.35224
G1 X133.799 Y116.881 E.01498
G1 X133.799 Y107.026 E.35224
G1 X133.38 Y107.026 E.01498
G1 X133.38 Y116.881 E.35224
