; generated by PrusaSlicer 2.4.0+linux-x64-GTK3 on 2022-01-15 at 16:16:34 UTC

; 

; external perimeters extrusion width = 0.45mm
; perimeters extrusion width = 0.45mm
; infill extrusion width = 0.45mm
; solid infill extrusion width = 0.45mm
; top infill extrusion width = 0.40mm
; support material extrusion width = 0.35mm
; first layer extrusion width = 0.42mm

M73 P0 R147
M73 Q0 S149
M201 X1000 Y1000 Z200 E5000 ; sets maximum accelerations, mm/sec^2
M203 X200 Y200 Z12 E120 ; sets maximum feedrates, mm/sec
M204 P1250 R1250 T1250 ; sets acceleration (P, T) and retract acceleration (R), mm/sec^2
M205 X8.00 Y8.00 Z0.40 E4.50 ; sets the jerk limits, mm/sec
M205 S0 T0 ; sets the minimum extruding and travel feed rate, mm/sec
M107
;TYPE:Custom
M862.3 P "MK3S" ; printer model check
M862.1 P0.4 ; nozzle diameter check
M115 U3.10.1 ; tell printer latest fw version
G90 ; use absolute coordinates
M83 ; extruder relative mode
M104 S205 ; set extruder temp
M140 S60 ; set bed temp
M190 S60 ; wait for bed temp
M109 S205 ; wait for extruder temp
G28 W ; home all without mesh bed level
G80 ; mesh bed leveling
G1 Z0.2 F720
G1 Y-3 F1000 ; go outside print area
G92 E0
G1 X60 E9 F1000 ; intro line
G1 X100 E12.5 F1000 ; intro line
G92 E0
M221 S95

; Don't change E values below. Excessive value can damage the printer.
M907 E430 ; set extruder motor current
G21 ; set units to millimeters
G90 ; use absolute coordinates
M83 ; use relative distances for extrusion
M900 K0.05 ; Filament gcode LA 1.5
M900 K30 ; Filament gcode LA 1.0
M107
;LAYER_CHANGE
;Z:0.2
;HEIGHT:0.2
;BEFORE_LAYER_CHANGE
G92 E0.0
;0.2


G1 E-.8 F2100
G1 Z.4 F10800
;AFTER_LAYER_CHANGE
;0.2
G1 X23.479 Y81.957
G1 Z.2
G1 E.8 F2100
M204 S1000
;TYPE:Skirt/Brim
;WIDTH:0.42
G1 F1200
G1 X24.554 Y81.701 E.03464
G1 X58.448 Y81.708 E1.06271
G1 X88.608 Y84.028 E.94846
G1 X218.406 Y95.617 E4.08589
G1 X219.522 Y96.013 E.03715
M73 Q0 S148
G1 X228.59 Y102.122 E.3428
G1 X229.455 Y103.177 E.04278
G1 X229.634 Y104.247 E.034
G1 X228.666 Y119.215 E.47031
G1 X228.191 Y120.495 E.04278
G1 X227.005 Y121.331 E.04551
G1 X216.269 Y124.693 E.35273
G1 X215.558 Y124.802 E.02254
G1 X193.668 Y124.8 E.68637
G1 X66.188 Y120.165 E3.99967
G1 X31.349 Y117.843 E1.09477
G1 X30.756 Y117.726 E.01897
G1 X23.802 Y115.409 E.22981
G1 X23.144 Y115.068 E.02323
G1 X19.14 Y112.119 E.15593
G1 X18.32 Y111.029 E.04278
G1 X18.172 Y110.205 E.02624
G1 X18.205 Y100.543 E.30295
G1 X20.522 Y86.636 E.44205
G1 X20.804 Y85.846 E.02628
G1 X22.491 Y82.897 E.10652
G1 X23.436 Y81.999 E.0409
; printing object sangles-Body.stl id:0 copy 0
;WIPE_START
G1 F8640
G1 X24.554 Y81.701 E-.26715
G1 X26.688 Y81.701 E-.49285
;WIPE_END
G1 E-.04 F2100
G1 Z.6 F10800
G1 X23.201 Y87.027
G1 Z.2
G1 E.8 F2100
;TYPE:Support material interface
;WIDTH:0.35
G1 F1200
G1 X22.867 Y87.027 E.00853
G1 X22.867 Y96.56 E.24343
G1 X23.36 Y88.931 E.1952
G1 X23.36 Y87.027 E.04863
G1 X23.719 Y87.027 E.00916
G1 X23.51 Y87.361 F10800
G1 F1200
G1 X23.809 Y87.099 E.01016
G1 X23.878 Y87.103 E.00177
G1 X23.878 Y87.027 E.00195
G1 X24.396 Y87.027 E.01322
G1 X24.396 Y87.137 E.00281
G1 X24.453 Y87.14 E.00147
G1 X24.502 Y87.097 E.00167
G1 X24.914 Y87.124 E.01052
G1 X24.914 Y87.027 E.00248
G1 X25.185 Y87.027 E.00693
G1 X25.185 Y87.141 E.00293
G1 X25.072 Y87.134 E.00289
;WIPE_START
G1 F8640
G1 X25.185 Y87.141 E-.0261
G1 X25.185 Y87.027 E-.02651
G1 X24.914 Y87.027 E-.06266
G1 X24.914 Y87.124 E-.02246
G1 X24.502 Y87.097 E-.09516
G1 X24.453 Y87.14 E-.01506
G1 X24.396 Y87.137 E-.01331
G1 X24.396 Y87.027 E-.02541
G1 X23.878 Y87.027 E-.11956
G1 X23.878 Y87.103 E-.01768
G1 X23.809 Y87.099 E-.01597
G1 X23.51 Y87.361 E-.09191
;WIPE_END
G1 E-.2682 F2100
G1 Z.6 F10800
G1 X25.554 Y108.529
G1 Z.2
G1 E.8 F2100
;TYPE:Support material
;WIDTH:0.42
G1 F1200
G1 X25.484 Y109.606 E.03386
G1 X24.554 Y109.546 E.02924
G1 X24.554 Y108.464 E.03393
G1 X25.498 Y108.525 E.02965
G1 X25.134 Y109.414 F10800
G1 F1200
G1 X25.134 Y108.672 E.02327
;WIPE_START
G1 F8640
G1 X25.134 Y109.414 E-.17134
;WIPE_END
G1 E-.62866 F2100
G1 Z.6 F10800
G1 X25.072 Y110.205
G1 Z.2
G1 E.8 F2100
;TYPE:Support material interface
;WIDTH:0.35
G1 F1200
G1 X25.185 Y110.205 E.00287
G1 X25.185 Y109.957 E.00633
G1 X24.914 Y109.939 E.00694
G1 X24.914 Y110.205 E.00678
G1 X24.396 Y110.205 E.01322
G1 X24.396 Y109.906 E.00764
G1 X23.878 Y109.872 E.01325
G1 X23.878 Y110.205 E.00849
G1 X23.36 Y110.205 E.01322
G1 X23.36 Y109.839 E.00935
G1 X23.034 Y109.818 E.00835
G1 X22.991 Y109.769 E.00167
G1 X22.842 Y109.759 E.0038
G1 X22.842 Y110.205 E.01138
G1 X22.325 Y110.205 E.01322
G1 X22.325 Y109.702 E.01284
G1 X22.061 Y109.402 E.0102
G1 X22.061 Y109.033 F10800
G1 F1200
G1 X22.325 Y104.955 E.10435
G1 X22.325 Y100.933 E.10269
G1 X21.807 Y100.933 E.01322
G1 X21.807 Y110.205 E.23673
G1 X21.289 Y110.205 E.01322
G1 X21.289 Y100.933 E.23673
G1 X20.771 Y100.933 E.01322
G1 X20.771 Y110.205 E.23673
G1 X20.549 Y110.205 E.00566
G1 X20.549 Y109.789 E.01062
;WIPE_START
G1 F8640
G1 X20.549 Y110.205 E-.09606
G1 X20.771 Y110.205 E-.05122
G1 X20.771 Y107.551 E-.61272
;WIPE_END
G1 E-.04 F2100
G1 Z.6 F10800
G1 X58.265 Y86.396
G1 Z.2
G1 E.8 F2100
;TYPE:Support material
;WIDTH:0.42
G1 F1200
G1 X88.397 Y86.396 E.94475
G1 X88.397 Y88.713 E.07267
G1 X93.032 Y88.713 E.14535
M73 P0 R146
G1 X93.032 Y91.031 E.07267
G1 X111.575 Y91.031 E.58139
G1 X111.575 Y93.349 E.07267
G1 X146.342 Y93.349 E1.0901
G1 X146.342 Y95.667 E.07267
G1 X183.427 Y95.667 E1.16277
G1 X183.427 Y97.985 E.07267
G1 X218.194 Y97.985 E1.0901
G1 X218.194 Y102.882 E.15356
G1 X214.876 Y102.882 E.10403
G1 X214.876 Y114.471 E.36337
G1 X212.558 Y114.471 E.07267
G1 X212.558 Y119.845 E.16849
G1 X215.558 Y119.845 E.09406
G1 X215.558 Y122.425 E.08089
G1 X193.754 Y122.425 E.68366
G1 X193.754 Y120.107 E.07267
G1 X156.669 Y120.107 E1.16277
G1 X156.669 Y117.789 E.07267
G1 X121.902 Y117.789 E1.0901
G1 X121.902 Y115.471 E.07267
G1 X88.397 Y115.471 E1.05053
G1 X88.397 Y117.789 E.07267
G1 X66.274 Y117.789 E.69363
G1 X66.274 Y115.471 E.07267
G1 X31.507 Y115.471 E1.0901
G1 X31.507 Y113.154 E.07267
G1 X24.554 Y113.154 E.21802
G1 X24.554 Y110.574 E.08089
G1 X25.554 Y110.574 E.03135
G1 X25.554 Y109.862 E.0223
G1 X25.712 Y110.042 E.00749
G1 X27.722 Y110.172 E.06318
G1 X27.993 Y109.934 E.0113
G1 X29.435 Y87.62 E.70109
G1 X29.197 Y87.35 E.0113
G1 X27.187 Y87.22 E.06318
G1 X26.916 Y87.457 E.0113
G1 X26.739 Y90.197 E.08607
G1 X24.554 Y90.056 E.06865
G1 X24.554 Y87.543 E.07878
G1 X24.631 Y87.475 E.00322
G1 X25.554 Y87.535 E.029
G1 X25.554 Y86.658 E.02751
G1 X24.554 Y86.658 E.03135
G1 X24.554 Y84.078 E.08089
G1 X58.265 Y84.078 E1.057
G1 X58.265 Y86.339 E.0709
;WIPE_START
G1 F8640
G1 X58.265 Y84.078 E-.52213
G1 X57.235 Y84.078 E-.23787
;WIPE_END
G1 E-.04 F2100
G1 Z.6 F10800
G1 X217.445 Y102.713
G1 Z.2
G1 E.8 F2100
G1 F1200
G1 X217.445 Y98.324 E.1376
G1 X217.026 Y98.324 E.01314
G1 X217.026 Y102.543 E.13228
G1 X216.607 Y102.543 E.01314
G1 X216.607 Y98.324 E.13228
G1 X216.188 Y98.324 E.01314
G1 X216.188 Y102.543 E.13228
G1 X215.769 Y102.543 E.01314
G1 X215.769 Y98.324 E.13228
G1 X215.35 Y98.324 E.01314
G1 X215.35 Y102.543 E.13228
G1 X214.931 Y102.543 E.01314
G1 X214.931 Y98.324 E.13228
G1 X214.512 Y98.324 E.01314
G1 X214.512 Y114.132 E.49565
G1 X214.093 Y114.132 E.01314
G1 X214.093 Y98.324 E.49565
G1 X213.674 Y98.324 E.01314
G1 X213.674 Y114.132 E.49565
G1 X213.255 Y114.132 E.01314
G1 X213.255 Y98.324 E.49565
G1 X212.836 Y98.324 E.01314
G1 X212.836 Y114.132 E.49565
G1 X212.417 Y114.132 E.01314
G1 X212.417 Y98.324 E.49565
G1 X211.998 Y98.324 E.01314
G1 X211.998 Y122.085 E.74502
G1 X212.417 Y122.085 E.01314
G1 X212.417 Y120.184 E.05961
G1 X212.836 Y120.184 E.01314
G1 X212.836 Y122.085 E.05961
G1 X213.255 Y122.085 E.01314
G1 X213.255 Y120.184 E.05961
G1 X213.674 Y120.184 E.01314
G1 X213.674 Y122.085 E.05961
G1 X214.093 Y122.085 E.01314
G1 X214.093 Y120.184 E.05961
G1 X214.512 Y120.184 E.01314
G1 X214.512 Y122.085 E.05961
G1 X214.931 Y122.085 E.01314
G1 X214.931 Y120.015 E.06493
G1 X211.579 Y122.255 F10800
G1 F1200
G1 X211.579 Y98.324 E.75034
G1 X211.16 Y98.324 E.01314
G1 X211.16 Y122.085 E.74502
G1 X210.741 Y122.085 E.01314
M73 Q0 S147
G1 X210.741 Y98.324 E.74502
G1 X210.322 Y98.324 E.01314
G1 X210.322 Y122.085 E.74502
G1 X209.903 Y122.085 E.01314
G1 X209.903 Y98.324 E.74502
G1 X209.484 Y98.324 E.01314
G1 X209.484 Y122.085 E.74502
G1 X209.065 Y122.085 E.01314
G1 X209.065 Y98.324 E.74502
G1 X208.646 Y98.324 E.01314
G1 X208.646 Y122.085 E.74502
G1 X208.227 Y122.085 E.01314
G1 X208.227 Y98.324 E.74502
G1 X207.808 Y98.324 E.01314
G1 X207.808 Y122.085 E.74502
G1 X207.389 Y122.085 E.01314
G1 X207.389 Y98.324 E.74502
G1 X206.97 Y98.324 E.01314
G1 X206.97 Y122.085 E.74502
G1 X206.551 Y122.085 E.01314
G1 X206.551 Y98.324 E.74502
G1 X206.132 Y98.324 E.01314
G1 X206.132 Y122.085 E.74502
G1 X205.713 Y122.085 E.01314
M73 P1 R146
M73 Q1 S147
G1 X205.713 Y98.324 E.74502
G1 X205.294 Y98.324 E.01314
G1 X205.294 Y122.085 E.74502
G1 X204.875 Y122.085 E.01314
G1 X204.875 Y98.324 E.74502
G1 X204.456 Y98.324 E.01314
G1 X204.456 Y122.085 E.74502
G1 X204.037 Y122.085 E.01314
G1 X204.037 Y98.324 E.74502
G1 X203.618 Y98.324 E.01314
G1 X203.618 Y122.085 E.74502
G1 X203.199 Y122.085 E.01314
G1 X203.199 Y98.324 E.74502
G1 X202.78 Y98.324 E.01314
G1 X202.78 Y122.085 E.74502
G1 X202.361 Y122.085 E.01314
M73 P1 R145
G1 X202.361 Y98.324 E.74502
G1 X201.942 Y98.324 E.01314
G1 X201.942 Y122.085 E.74502
G1 X201.523 Y122.085 E.01314
G1 X201.523 Y98.324 E.74502
G1 X201.105 Y98.324 E.01314
G1 X201.105 Y122.085 E.74502
G1 X200.686 Y122.085 E.01314
G1 X200.686 Y98.324 E.74502
G1 X200.267 Y98.324 E.01314
G1 X200.267 Y122.085 E.74502
G1 X199.848 Y122.085 E.01314
G1 X199.848 Y98.324 E.74502
G1 X199.429 Y98.324 E.01314
G1 X199.429 Y122.085 E.74502
G1 X199.01 Y122.085 E.01314
G1 X199.01 Y98.324 E.74502
G1 X198.591 Y98.324 E.01314
G1 X198.591 Y122.085 E.74502
G1 X198.172 Y122.085 E.01314
G1 X198.172 Y98.324 E.74502
G1 X197.753 Y98.324 E.01314
G1 X197.753 Y122.085 E.74502
G1 X197.334 Y122.085 E.01314
G1 X197.334 Y98.324 E.74502
G1 X196.915 Y98.324 E.01314
G1 X196.915 Y122.085 E.74502
G1 X196.496 Y122.085 E.01314
G1 X196.496 Y98.324 E.74502
G1 X196.077 Y98.324 E.01314
G1 X196.077 Y122.085 E.74502
G1 X195.658 Y122.085 E.01314
G1 X195.658 Y98.324 E.74502
G1 X195.239 Y98.324 E.01314
G1 X195.239 Y122.085 E.74502
G1 X194.82 Y122.085 E.01314
G1 X194.82 Y98.324 E.74502
G1 X194.401 Y98.324 E.01314
G1 X194.401 Y122.085 E.74502
G1 X194.093 Y122.085 E.00964
G1 X194.093 Y119.768 E.07267
G1 X193.982 Y119.768 E.0035
G1 X193.982 Y98.324 E.67235
G1 X193.563 Y98.324 E.01314
G1 X193.563 Y119.768 E.67235
G1 X193.144 Y119.768 E.01314
G1 X193.144 Y98.324 E.67235
G1 X192.725 Y98.324 E.01314
G1 X192.725 Y119.768 E.67235
G1 X192.306 Y119.768 E.01314
G1 X192.306 Y98.324 E.67235
G1 X191.887 Y98.324 E.01314
G1 X191.887 Y119.768 E.67235
G1 X191.468 Y119.768 E.01314
G1 X191.468 Y98.324 E.67235
G1 X191.049 Y98.324 E.01314
G1 X191.049 Y119.768 E.67235
G1 X190.63 Y119.768 E.01314
G1 X190.63 Y98.324 E.67235
G1 X190.211 Y98.324 E.01314
G1 X190.211 Y119.768 E.67235
G1 X189.792 Y119.768 E.01314
M73 Q1 S146
G1 X189.792 Y98.324 E.67235
G1 X189.373 Y98.324 E.01314
G1 X189.373 Y119.768 E.67235
G1 X188.954 Y119.768 E.01314
G1 X188.954 Y98.324 E.67235
G1 X188.535 Y98.324 E.01314
G1 X188.535 Y119.768 E.67235
G1 X188.116 Y119.768 E.01314
G1 X188.116 Y98.324 E.67235
G1 X187.697 Y98.324 E.01314
G1 X187.697 Y119.768 E.67235
G1 X187.278 Y119.768 E.01314
G1 X187.278 Y98.324 E.67235
G1 X186.859 Y98.324 E.01314
G1 X186.859 Y119.768 E.67235
G1 X186.44 Y119.768 E.01314
G1 X186.44 Y98.324 E.67235
G1 X186.021 Y98.324 E.01314
G1 X186.021 Y119.768 E.67235
G1 X185.602 Y119.768 E.01314
G1 X185.602 Y98.324 E.67235
G1 X185.183 Y98.324 E.01314
G1 X185.183 Y119.768 E.67235
G1 X184.764 Y119.768 E.01314
G1 X184.764 Y98.324 E.67235
G1 X184.345 Y98.324 E.01314
G1 X184.345 Y119.768 E.67235
G1 X183.926 Y119.768 E.01314
G1 X183.926 Y98.324 E.67235
G1 X183.507 Y98.324 E.01314
G1 X183.507 Y119.768 E.67235
G1 X183.089 Y119.768 E.01314
G1 X183.088 Y96.006 E.74502
G1 X182.67 Y96.006 E.01311
G1 X182.67 Y119.768 E.74502
G1 X182.251 Y119.768 E.01314
G1 X182.251 Y96.006 E.74502
G1 X181.832 Y96.006 E.01314
G1 X181.832 Y119.768 E.74502
G1 X181.413 Y119.768 E.01314
G1 X181.413 Y96.006 E.74502
G1 X180.994 Y96.006 E.01314
G1 X180.994 Y119.768 E.74502
G1 X180.575 Y119.768 E.01314
M73 P1 R144
G1 X180.575 Y96.006 E.74502
G1 X180.156 Y96.006 E.01314
G1 X180.156 Y119.768 E.74502
G1 X179.737 Y119.768 E.01314
G1 X179.737 Y96.006 E.74502
G1 X179.318 Y96.006 E.01314
G1 X179.318 Y119.768 E.74502
G1 X178.899 Y119.768 E.01314
G1 X178.899 Y96.006 E.74502
G1 X178.48 Y96.006 E.01314
G1 X178.48 Y119.768 E.74502
G1 X178.061 Y119.768 E.01314
G1 X178.061 Y96.006 E.74502
G1 X177.642 Y96.006 E.01314
G1 X177.642 Y119.768 E.74502
G1 X177.223 Y119.768 E.01314
G1 X177.223 Y96.006 E.74502
G1 X176.804 Y96.006 E.01314
G1 X176.804 Y119.768 E.74502
G1 X176.385 Y119.768 E.01314
G1 X176.385 Y96.006 E.74502
G1 X175.966 Y96.006 E.01314
G1 X175.966 Y119.768 E.74502
G1 X175.547 Y119.768 E.01314
G1 X175.547 Y96.006 E.74502
G1 X175.128 Y96.006 E.01314
G1 X175.128 Y119.768 E.74502
G1 X174.709 Y119.768 E.01314
G1 X174.709 Y96.006 E.74502
G1 X174.29 Y96.006 E.01314
M73 P2 R144
G1 X174.29 Y119.768 E.74502
G1 X173.871 Y119.768 E.01314
M73 Q2 S146
G1 X173.871 Y96.006 E.74502
G1 X173.452 Y96.006 E.01314
G1 X173.452 Y119.768 E.74502
G1 X173.033 Y119.768 E.01314
G1 X173.033 Y96.006 E.74502
G1 X172.614 Y96.006 E.01314
G1 X172.614 Y119.768 E.74502
G1 X172.195 Y119.768 E.01314
G1 X172.195 Y96.006 E.74502
G1 X171.776 Y96.006 E.01314
G1 X171.776 Y119.768 E.74502
G1 X171.357 Y119.768 E.01314
G1 X171.357 Y96.006 E.74502
G1 X170.938 Y96.006 E.01314
G1 X170.938 Y119.768 E.74502
G1 X170.519 Y119.768 E.01314
G1 X170.519 Y96.006 E.74502
G1 X170.1 Y96.006 E.01314
G1 X170.1 Y119.768 E.74502
G1 X169.681 Y119.768 E.01314
G1 X169.681 Y96.006 E.74502
G1 X169.262 Y96.006 E.01314
G1 X169.262 Y119.768 E.74502
G1 X168.843 Y119.768 E.01314
M73 Q2 S145
G1 X168.843 Y96.006 E.74502
G1 X168.424 Y96.006 E.01314
G1 X168.424 Y119.768 E.74502
G1 X168.005 Y119.768 E.01314
G1 X168.005 Y96.006 E.74502
G1 X167.586 Y96.006 E.01314
G1 X167.586 Y119.768 E.74502
G1 X167.167 Y119.768 E.01314
G1 X167.167 Y96.006 E.74502
G1 X166.748 Y96.006 E.01314
G1 X166.748 Y119.768 E.74502
G1 X166.329 Y119.768 E.01314
G1 X166.329 Y96.006 E.74502
G1 X165.91 Y96.006 E.01314
G1 X165.91 Y119.768 E.74502
G1 X165.491 Y119.768 E.01314
G1 X165.491 Y96.006 E.74502
G1 X165.072 Y96.006 E.01314
G1 X165.072 Y119.768 E.74502
G1 X164.654 Y119.768 E.01314
G1 X164.654 Y96.006 E.74502
G1 X164.235 Y96.006 E.01314
G1 X164.235 Y119.768 E.74502
G1 X163.816 Y119.768 E.01314
G1 X163.816 Y96.006 E.74502
G1 X163.397 Y96.006 E.01314
G1 X163.397 Y119.768 E.74502
G1 X162.978 Y119.768 E.01314
G1 X162.978 Y96.006 E.74502
G1 X162.559 Y96.006 E.01314
G1 X162.559 Y119.768 E.74502
G1 X162.14 Y119.768 E.01314
G1 X162.14 Y96.006 E.74502
G1 X161.721 Y96.006 E.01314
G1 X161.721 Y119.768 E.74502
G1 X161.302 Y119.768 E.01314
G1 X161.302 Y96.006 E.74502
G1 X160.883 Y96.006 E.01314
G1 X160.883 Y119.768 E.74502
G1 X160.464 Y119.768 E.01314
G1 X160.464 Y96.006 E.74502
G1 X160.045 Y96.006 E.01314
M73 P2 R143
G1 X160.045 Y119.768 E.74502
G1 X159.626 Y119.768 E.01314
G1 X159.626 Y96.006 E.74502
G1 X159.207 Y96.006 E.01314
G1 X159.207 Y119.768 E.74502
G1 X158.788 Y119.768 E.01314
G1 X158.788 Y96.006 E.74502
G1 X158.369 Y96.006 E.01314
G1 X158.369 Y119.768 E.74502
G1 X157.95 Y119.768 E.01314
G1 X157.95 Y96.006 E.74502
G1 X157.531 Y96.006 E.01314
G1 X157.531 Y119.768 E.74502
G1 X157.112 Y119.768 E.01314
G1 X157.112 Y96.006 E.74502
G1 X156.693 Y96.006 E.01314
G1 X156.693 Y117.45 E.67235
G1 X156.274 Y117.45 E.01314
G1 X156.274 Y96.006 E.67235
G1 X155.855 Y96.006 E.01314
G1 X155.855 Y117.45 E.67235
G1 X155.436 Y117.45 E.01314
G1 X155.436 Y96.006 E.67235
G1 X155.017 Y96.006 E.01314
G1 X155.017 Y117.45 E.67235
G1 X154.598 Y117.45 E.01314
G1 X154.598 Y96.006 E.67235
G1 X154.179 Y96.006 E.01314
G1 X154.179 Y117.45 E.67235
G1 X153.76 Y117.45 E.01314
G1 X153.76 Y96.006 E.67235
G1 X153.341 Y96.006 E.01314
